X:372
T: WAS SOLL ICH DENN NUN SINGEN
N: E0211
O: Europa, Mitteleuropa, Deutschland, Schlesien
R: erzaehlendes Volks - Lied, Mahn -, Moral - Lied, Strafe; Untreue
M: 2/4
L: 1/8
K: F
F | FAcA | AGG
G | BBdB | B2A
A | cAcA | c2fz |
dddd | c2A
c | cBGc | A2z
A | cAcA | c2fz |
dddd | c2A
c | cBGc | A2z

@@@ Tune index: 4022
